X: 2
T: Kickin' Up The Devil On A Holiday
M: 4/4
L: 1/8
R: reel
K: Amin
Ad|: c2Ac B2G2|A2A2 d2Ad|cABG A2G2|1 E2D2 D2Ad:|2 E2D2 D2A,C||
|:D3D E2G2|A4 A2 Ad |c2 ABc2 AB | cBcd c2E2|
D3D EG3|A2A2 d2Ad|cABG A2G2|1 E2D2 D2A,C:|2 1 E2D2 D2||
